!!!!SEGMENT: pl-sa--564-a-ix-44--004_anonim--polonez-d.krn
!!!cenid: 18xx:591
!!!COM: Anonim
!!!COM-rismID: pe30004985
!!!CDT:
!!!CNT:
!!!OTL: Polonez D
!!!PDT:
!!!AGN: Secular; Polonaise
!!!SMS-siglum: PL-SA
!!!SMS-shelfmark: 564/A IX 44
!!!SMS-shelfwork: 004 W
!!!SMS-variant:
!!!SMS-altvar:
!!!NIFC-rismSourceID: 1001065439
!!!NIFC-islandoraID:
!!!URL-pdf-islandora:
!!!URL-scan: https://bc.bdsandomierz.pl/dlibra/publication/1320/edition/1288/content @EN{Scan in the Sandomierz Diocese Digital Library} @PL{Skany w portalu Cyfrowa Biblioteka Diecezjalna w Sandomierzu}
!!!ONB-nifc: Str. 4
!!!AIN: 1 empty
!!!key:
**kern	**kern
*part1	*part1
*staff2	*staff1
*Iempty	*Iempty
*I"	*I"
*>[A,B,B,C,C]	*>[A,B,B,C,C]
*clefF4	*clefG2
*k[f#c#]	*k[f#c#]
*A:	*A:
*M3/4	*M3/4
=1	=1
*>A	*>A
!	!LO:TX:a:t=No 5t
!	!LO:TX:a:t=[Po]lon:problem=fragment karty naderwany
8D/ 8DD/	8d/
4D/ 4DD/	4d/
16E\LL	16e/LL
16F#\JJ	16f#/JJ
16G\LL	16g/LL
16A\	16a/
16B\	16b/
16c#\JJ	16cc#/JJ
=2	=2
8d\ 8D\	8dd\
4d\ 4D\	4dd\
*clefG2	*
16e/LL	16ee\LL
16f#/JJ	16ff#\JJ
16g/LL	16gg\LL
16a/	16aa\
16b/	16bb\
16cc#/JJ	16ccc#\JJ
=3	=3
8dd/L	8ddd\L
8a/	8aa\
8f#/	8ff#\
8a/	8aa\
8d/	8dd\
8f#/J	8ff#\J
=4	=4
!	!LO:TX:a:t=P:problem=mixed beam
8B/L	8b\L
8d/	8dd\
8G#X/	8g#X/
8B/J	8b/J
4A/	4a/
=5	=5
*>B	*>B
!LO:TX:a:t=[segno]:problem=segno na kresce taktowej	!LO:TX:a:t=[segno]:problem=segno na kresce taktowej
8r	16cc#\LL
.	16ee\
8g/ 8e/ 8A/	16aa\
.	16ccc#\JJ
*tremolo	*
8g/L 8e/ 8A/	4.eee\
8g/ 8e/ 8A/	.
8g/ 8e/ 8A/	.
8g/J 8e/ 8A/	8bb\
*Xtremolo	*
=6	=6
8r	16gg\LL 16ee\
.	16ff#\ 16dd\
8f#/ 8d/ 8A/	16bb\ 16gg\
.	16aa\JJ 16ff#\
*tremolo	*
8f#/L 8d/ 8A/	4aa\ 4ff#\
8f#/ 8d/ 8A/	.
8f#/ 8d/ 8A/	8rcc
8f#/J 8d/ 8A/	16bb\LL
.	16ccc#\JJ
*Xtremolo	*
!!LO:LB:g=original
=7	=7
.	8qdd/
8f#/L 8d/	4ddd\
8A/J	.
*rep	*
8f#/L 8d/	16ddd\LL
.	16ccc#\
8A/J	16bb\
.	16aa\JJ
*Xrep	*
*rep	*
8f#/L 8d/	16bb\LL
.	16aa\
8A/J	16gg\
.	16ff#\JJ
*Xrep	*
=8	=8
.	8qqaa/
4e/ 4A/	16gg\LL
.	16ff#\
.	16gg\
.	16aa\JJ
8e/L 8c#/	16gg\LL
.	16ee\
8f#/J 8d/	16ff#\
.	16dd\JJ
8a/L	8ff#\L 8dd\
8A/J	8ee\J 8cc#\
=9	=9
*clefF4	*
4d\ 4D\	8dd\L
.	8ddd\ 8bb\
4r	8ccc#\ 8aa\
.	8bb\ 8gg\
8r	8aa\ 8ff#\
8C#/ 8CC#/	8bb\J 8gg\
=10	=10
4D/ 4DD/	8aa\L 8ff#\
.	8ddd\ 8bb\
4r	8ccc#\ 8aa\
.	8bb\ 8gg\
8r	8aa\ 8ff#\
8C#/ 8CC#/	8bb\J 8gg\
=11	=11
8D/L 8DD/	8aa\L 8ff#\
8B/ 8BB/	8ddd\ 8bb\
8A/ 8AA/	8ccc#\ 8aa\
8G/ 8GG/	8bb\ 8gg\
8F#/ 8FF#/	8.aa\ 8.ff#\
8B/J 8BB/	.
.	16ff#\Jk 16dd\
=12	=12
!LO:TX:a:t=P:problem=mixed beam	!
8G\L	8ee\L
8E\	16gg\L
.	16bb\JJ
8A\	16aa\LL
.	16ff#\
8AA/J	16gg\
.	16ee\JJ
4D\	4dd\
=13||;	=13||;
!LO:TX:a:t=P:problem=mixed beam	!
8AA/L	16cc#\LL
.	16a\
8A\J	16cc#\
.	16ee\JJ
*rep	*
8AA/L	4.aa\ 4.ff#\
8A\J	.
*Xrep	*
*rep	*
8AA/L	.
8A\J	16gg#X\LL 16ee\
.	16ff#\JJ 16dd\
*Xrep	*
!!LO:LB:g=original
=14	=14
!LO:TX:a:t=P:problem=mixed beam	!
8AA/L	8ff#\L 8dd\
8A\J	8ee\J 8cc#\
*rep	*
8AA/L	4.ff#\ 4.dd\
8A\J	.
*Xrep	*
*rep	*
8AA/L	.
8A\J	16ee\LL 16cc#\
.	16dd\JJ 16b\
*Xrep	*
=15	=15
!LO:TX:a:t=P:problem=mixed beam	!
8AA/L	16dd\LL
.	16cc#\
8A\J	16b\
.	16a\JJ
!LO:TX:a:t=P:problem=mixed beam	!
8C#X/L	4.ee\ 4.cc#\
8A\	.
8F#\	.
8A\J	16dd\LL
.	16cc#\JJ
=16	=16
8D/L	4b\
8BB/J	.
.	8qqcc#/
!LO:TX:a:t=P:problem=mixed beam	!
8E\L	16b\LL
.	16a\
8EE/J	16b\
.	16cc#\JJ
!LO:SIC:s=4AA/:v	!
4GG/	4a/
=17	=17
!LO:TX:a:t=P:problem=mixed beam	!
8D/L	16cc#\LL
.	16dd\
8d\J	16ff#\
.	16aa\JJ
*2\right	*
*tremolo	*
8d\L	4.ddd\ 4.bb\
8d\	.
8d\	.
8d\J	16ccc#\LL 16aa\
.	16bb\JJ 16gg\
=18	=18
!LO:TX:a:t=P:problem=mixed beam	!
8D/L	8bb\L 8gg\
8d\J	8aa\J 8ff#\
8d\L	4.bb\ 4.gg\
8d\	.
8d\	.
8d\J	16aa\LL 16ff#\
.	16gg\JJ 16ee\
=19	=19
!LO:TX:a:t=P:problem=mixed beam	!
8D/L	8gg\L 8ee\
8d\J	8ff#\J 8dd\
8d\L	4.aa\ 4.ff#\
8d\	.
8d\	.
8d\J	8ff#\ 8dd\
=20	=20
!LO:TX:a:t=P:problem=mixed beam	!
8D/L	8.aa\L 8.ff#\
8d\	.
.	16ff#\Jk 16dd\
8B\	8ddd\L 8ff#\
8G#X\J	8ff#\J 8dd\
!	!LO:TX:b:t=al Segno
!LO:TX:a:t=[segno]:problem=segno na kresce taktowej	!LO:TX:a:t=[segno]:problem=segno na kresce taktowej
4A\	4ee\ 4cc#\
!!LO:LB:g=original
=21	=21
*>C	*>C
*k[f#c#]	*k[f#c#]
*M3/4	*M3/4
!	!LO:TX:a:t=Trio
8.D\L	8.d/L
32F#\LL	32f#/LL
32D\JJJ	32d/JJJ
!	!LO:TX:a:t=P:problem=mixed beam
4A\	8a/L
.	8aa\ 8ff#\
4r	8.bb\ 8.gg\
.	16aa\Jk 16ff#\
=22	=22
4AA/	8gg\L 8ee\
.	16aa\L 16ff#\
.	16bb\JJ 16gg\
4A\	8aa\L 8ff#\
.	8gg\ 8ee\
4r	8ee\ 8cc#\
.	8ff#\J 8dd\
=23	=23
8D\L	8.d/L
16.F#\L	.
.	32f#/LL
32D\JJk	32d/JJJ
!	!LO:TX:a:t=P:problem=mixed beam
4A\	8a/L
.	8aa\ 8ff#\
4r	8.bb\ 8.gg\
.	16aa\Jk 16ff#\
=24	=24
4A\	8gg\L 8ee\
.	8ccc#\J 8ee\
8r	8.eee\L 8.gg\
8AA/	.
.	16ccc#\Jk 16ee\
4D\	4ddd\ 4ff#\
!!LO:LB:g=original
=25||;	=25||;
8c#\L 8A\	16ee\LL
.	16ff#\
8E\J	16ee\
.	16cc#\JJ
*rep	*
8c#\L 8A\	8a\L
8E\J	8cc#\
*Xrep	*
*rep	*
8c#\L 8A\	8ee\
8E\J	8aa\J
*Xrep	*
=26	=26
!LO:TX:a:t=P:problem=mixed beam	!
8d\L 8B\	8.bb\L
8E/J	.
.	16aa\Jk
*rep	*
8d\L 8B\	16gg#X\LL
.	16aa\
8E/J	16gg#\
.	16ff#\JJ
*Xrep	*
*rep	*
8d\L 8B\	16ee\LL
.	16ff#\
8E/J	16ee\
.	16dd\JJ
*Xrep	*
=27	=27
8c#\L 8A\	16ee\LL
.	16ff#\
8E\J	16ee\
.	16cc#\JJ
*rep	*
8c#\L 8A\	8a\L
8E\J	8cc#\
*Xrep	*
*rep	*
8c#\L 8A\	8ee\
8E\J	8aa\J
*Xrep	*
=28	=28
!LO:TX:a:t=P:problem=mixed beam	!
8d\L 8B\	16bb\LL
.	16gg#X\
8E/J	16ee\
.	16ff#\JJ
8r	16dd\LL
.	16b\
8B\ 8E\	16f#\
.	16g#X\JJ
!	!LO:TX:b:t=Trio Da Capo
4c#\ 4A\	4a\
==	==
*-	*-
!!!system-decoration: {(s1,s2)}
!!!ENC: Zofia Niedbalska
!!!END: 2020-12-08
!!!ENC: Anastazja Marusiak
!!!END: 2020-06-19
!!!YEC: Copyright 2022 Narodowy Instytut Fryderyka Chopina (https://polishscores.org)
!!!YEM: Licence CC BY 4.0 (https://creativecommons.org/licenses/by/4.0)
